Adwaita++-Dark/actions/16/distribute-randomize.svg

<svg height="16" viewBox="0 0 16 16" width="16" xmlns="http://www.w3.org/2000/svg">
  <path d="m10 1.0097656v4h5v-4zm-10 1v4h5v-4zm11 4v4.0000004h5v-4.0000004zm-6 1v4.0000004h5v-4.0000004zm-5 5.0000004v4h5v-4zm6 0v4h5v-4z" fill="#e6ddff"/>
</svg>

<svg xmlns="http://www.w3.org/2000/svg" width="16" height="16" viewBox="0 0 16 16">
 <defs>
  <style id="current-color-scheme" type="text/css">
   .ColorScheme-Text { color:#E6DDFF; } .ColorScheme-Highlight { color:#4285f4; }
  </style>
 </defs>
 <path style="fill:currentColor" class="ColorScheme-Text" d="M 10 1.0097656 L 10 5.0097656 L 15 5.0097656 L 15 1.0097656 L 10 1.0097656 z M 0 2.0097656 L 0 6.0097656 L 5 6.0097656 L 5 2.0097656 L 0 2.0097656 z M 11 6.0097656 L 11 10.009766 L 16 10.009766 L 16 6.0097656 L 11 6.0097656 z M 5 7.0097656 L 5 11.009766 L 10 11.009766 L 10 7.0097656 L 5 7.0097656 z M 0 12.009766 L 0 16.009766 L 5 16.009766 L 5 12.009766 L 0 12.009766 z M 6 12.009766 L 6 16.009766 L 11 16.009766 L 11 12.009766 L 6 12.009766 z"/>
</svg>
